X:1
T:The Stroll (Transcribed)
C:Clyde Otis and Nancy Lee
Z:All Rights Reserved
L:1/8
M:4/4
K:Bb
V:1 treble nm="Melody" snm="Melody"
%%MIDI program 65
V:1
"F " _A4- A>F (3:2:2A2 F- | F2 z2 z4 | _A4- A>F (3:2:2A2 F- | F2 z2 z4 | _A2 G2 F2 z2 | %5
w: ||||Come ~let's ~stroll,|
 z2 _AG F2 DF | _A4- A>F (3:2:2A2 F- | F2 z4 (3DFG |"Bb7" _A2 G2 F2 DF | B,2 _AG F2 DF | %10
w: stroll ~a- cross the ~floor.|||Come ~let's ~st- r\- o\-|ll, stroll ~a- cross the ~floor.|
"F " _A4- A>F (3:2:2A2 F- | F2 z4 D2 |"C7" GG G2 G2 _A2 |"Bb7" z2 D2 F2 _AF | %14
w: |* Now|~turn ~a- round, ~ba- by,|let's stroll once more.|
"F " _A4- A>F (3:2:2A2 F- | F2 z2 z4 | _A2 G2 F2 z2 | z2 _AG F2 DF | _A4- A>F (3:2:2A2 F- | %19
w: ||Feels ~so ~good!|Take ~me ~by my ~hand.||
 F2 z4 C2 |"Bb7" _A2 G2 F2 DF | B,2 _AG F2 DF |"F " _A4- A>F (3:2:2A2 F- | F2 z4 D2 | %24
w: * Now|~feels ~so ~g- o\- o\-|d! Take ~me ~by my ~hand.||* And|
"C7" G2 G2 G2 _A2 |"Bb7" z2 D2 F2 _AF |"F " _A4- A>F (3:2:2A2 F- | F2 z2 z4 | _A8 | F c2 F2 z _A2 | %30
w: ~let's ~go ~strol- ling|in won- der- land.|||Strol-|ling! * * *|
 _A8 | F z (3_afe (3fec GF |"Bb7" _A2 G2 F2 DF | B,2 z2 z4 |"F " _A8 | F2 (3c'_af (3dc_A C2 | %36
w: Strol-|ling! * * * * * * Rock and|rol- .. .. .. ..|ling.|Strol-|ling! * * * * * * Well|
"C7" G2 G2 G2 _A2 |"Bb7" z2 CC F2 _AF |"F " _A4- A>F (3:2:2A2 F- | F2 z2 z4 | _A2 G2 F2 z2 | %41
w: ~rock ~my ~so- ul,|how ~I ~love ~to stroll.|||There's ~my ~love|
 z2 _AG F2 DF | _A4- A>F (3:2:2A2 F- | F2 z4 (3DFG |"Bb7" _A2 G2 F2 DF | B,2 _AG F2 DF | %46
w: strol- ling ~in the ~door.|||There's ~my ~l- o\- v\-|e strol- ing ~in the ~door.|
"F " _A4- A>F (3:2:2A2 F- | F2 z4 DD |"C7" G2 G2 G2 _A2 |"Bb7" z2 DD F2 _AF | %50
w: |* Ba- by|~let's ~go ~strol- ling|by ~the ~can- dy store.|
"F " _A4- A>F (3:2:2A2 F- | F2 z2 z4 |"F7" (3eed (3ced c2- (3c_AF | (3:2:2_A2 F- F4 (3:2:2A2 E- | %54
w: ||||
 E8 | E z z4 (3FBd |"Bb7" (3B2 e2 e2 d3- d/f/ | (3_a2 f2 f2 (3:2:2a2 a- a2- |"F " a2 f2 z4 | %59
w: |||||
 z4 z3/2 c/ (3:2:2d2 c |"C7" g2 g2 g4 |"Bb7" z2 z3/2 _a/ (3:2:2g2 f g2 |"F " f4- f>e (3:2:2f2 d | %63
w: ||||
 (3_AGF (3:2:2G2 F- F4- | F8 |] %65
w: ||

